X:66
T:The Wherligig
T:to the tune Woodicock
M:6/8
L:1/8
Q:110
B:The Round Band Book of Playford
K:Dm
A |\
"Dm"d2d f>ed | "Am"c2A c2c | "Dm"d2d f>ed | "Am"cAA A2A |\
"Dm"d2d f>ed | "Am"c2A c2c | "Dm"d2d f>ed | "Am"cAA A |]
|: d |\
"F"c2B c>BA | "Gm"BGG G2G | "Am"AAA A>Bc | "Dm"dDD D2d |\
"F"c2B c>BA | "Gm"BGG G2G | "Am" AAA A>Bc | "Dm"dDD D :|
